assets/images/social-nav.svg

<svg width="120" height="109" viewBox="0 0 120 109" fill="none" xmlns="http://www.w3.org/2000/svg">
<path d="M10.9 0H119.9L109 109H0L10.9 0Z" fill="#FDCC0A"/>
<g clip-path="url(#clip0_1_617)">
<path d="M59.9492 27.25C49.5207 27.25 41.0368 35.7352 41.0368 46.1639C41.0368 56.2024 58.1963 79.656 58.927 80.6492L59.6089 81.5772C59.648 81.6307 59.6992 81.6742 59.7584 81.7043C59.8175 81.7343 59.8829 81.75 59.9492 81.75C60.0158 81.7501 60.0815 81.7345 60.141 81.7045C60.2005 81.6745 60.2521 81.6308 60.2916 81.5772L60.973 80.6492C61.7041 79.656 78.8632 56.2024 78.8632 46.1639C78.8632 35.7352 70.3779 27.25 59.9492 27.25ZM59.9492 39.389C63.6857 39.389 66.7241 42.4275 66.7241 46.1639C66.7241 49.8984 63.6856 52.9389 59.9492 52.9389C56.2148 52.9389 53.1742 49.8984 53.1742 46.1639C53.1742 42.4275 56.2147 39.389 59.9492 39.389Z" fill="#1C1C1C"/>
</g>
<defs>
<clipPath id="clip0_1_617">
<rect width="54.5" height="54.5" fill="white" transform="translate(32.7 27.25)"/>
</clipPath>
</defs>
</svg>

<svg width="120" height="109" fill="none" xmlns="http://www.w3.org/2000/svg"><path d="M10.9 0h109L109 109H0L10.9 0Z" fill="#FDCC0A"/><g clip-path="url(#a)"><path d="M59.95 27.25c-10.43 0-18.913 8.485-18.913 18.914 0 10.038 17.16 33.492 17.89 34.485l.682.928a.422.422 0 0 0 .683 0l.681-.928c.731-.993 17.89-24.447 17.89-34.485 0-10.429-8.485-18.914-18.914-18.914Zm0 12.139a6.782 6.782 0 0 1 6.774 6.775 6.783 6.783 0 0 1-6.775 6.775c-3.734 0-6.775-3.04-6.775-6.775a6.783 6.783 0 0 1 6.775-6.775Z" fill="#1C1C1C"/></g><defs><clipPath id="a"><path fill="#fff" transform="translate(32.7 27.25)" d="M0 0h54.5v54.5H0z"/></clipPath></defs></svg>
